svgs/towerjumper.svg

<svg xmlns="http://www.w3.org/2000/svg" viewBox="0 0 192 192"><path d="M145.78 89.395c9.743 6.116 15.597 13.984 15.597 22.627 0 19.284-29.27 34.899-65.5 34.899-36.229 0-65.377-15.615-65.377-34.899S59.77 77.124 96 77.124c5.477-.015 10.949.353 16.375 1.101" fill="none" stroke="#000" stroke-width="8" stroke-linecap="round" stroke-linejoin="round"/><path d="M161.5 112.022h-131v28.539c0 19.284 29.27 34.898 65.5 34.898 36.23 0 65.5-15.614 65.5-34.898ZM96 146.921V77.124" fill="none" stroke="#000" stroke-width="8" stroke-linecap="round" stroke-linejoin="round"/><path d="m119.785 99.343-70.003 37.385V164.9" fill="none" stroke="#000" stroke-width="8" stroke-linecap="round" stroke-linejoin="round"/><path d="m49.782 87.357 92.477 49.371V164.9M96 143.782V175.5m32.914-108.813a17.694 17.694 0 0 0-10.371 3.356 17.577 17.577 0 0 0-6.41 8.786 17.506 17.506 0 0 0 0 10.859 17.577 17.577 0 0 0 6.41 8.786 17.694 17.694 0 0 0 10.371 3.356c3.725 0 7.357-1.175 10.371-3.356a17.575 17.575 0 0 0 6.409-8.786 17.506 17.506 0 0 0 0-10.859 17.575 17.575 0 0 0-6.409-8.786 17.696 17.696 0 0 0-10.371-3.356Zm-22.639-11.415-20.1-25.807m-18.954-7.787 19.404 24.95m18.586 23.687L91.743 52.866M88.959 16.5l16.825 21.648m6.509 9.01 5.609 7.217" fill="none" stroke="#000" stroke-width="8" stroke-linecap="round" stroke-linejoin="round"/></svg>

<svg
    xmlns="http://www.w3.org/2000/svg"
    viewBox="0 0 192 192"
    id="vector">
    <path
        id="path"
        d="M 145.78 89.395 C 155.523 95.511 161.377 103.379 161.377 112.022 C 161.377 131.306 132.107 146.921 95.877 146.921 C 59.648 146.921 30.5 131.306 30.5 112.022 C 30.5 92.738 59.77 77.124 96 77.124 C 101.477 77.109 106.949 77.477 112.375 78.225"
        fill="none"
        stroke="#000000"
        stroke-width="8"
        stroke-linecap="round"
        stroke-linejoin="round"/>
    <path
        id="path_1"
        d="M 161.5 112.022 L 30.5 112.022 L 30.5 140.561 C 30.5 159.845 59.77 175.459 96 175.459 C 132.23 175.459 161.5 159.845 161.5 140.561 Z M 96 146.921 L 96 77.124"
        fill="none"
        stroke="#000000"
        stroke-width="8"
        stroke-linecap="round"
        stroke-linejoin="round"/>
    <path
        id="path_2"
        d="M 119.785 99.343 L 49.782 136.728 L 49.782 164.9"
        fill="none"
        stroke="#000000"
        stroke-width="8"
        stroke-linecap="round"
        stroke-linejoin="round"/>
    <path
        id="path_3"
        d="M 49.782 87.357 L 142.259 136.728 L 142.259 164.9"
        fill="none"
        stroke="#000000"
        stroke-width="8"
        stroke-linecap="round"
        stroke-linejoin="round"/>
    <path
        id="path_4"
        d="M 96 143.782 L 96 175.5 M 128.914 66.687 C 125.188 66.687 121.557 67.862 118.543 70.043 C 115.529 72.224 113.284 75.3 112.133 78.829 C 110.982 82.357 110.982 86.16 112.133 89.688 C 113.284 93.217 115.529 96.293 118.543 98.474 C 121.557 100.655 125.188 101.83 128.914 101.83 C 132.639 101.83 136.271 100.655 139.285 98.474 C 142.299 96.293 144.543 93.217 145.694 89.688 C 146.845 86.16 146.845 82.357 145.694 78.829 C 144.543 75.3 142.299 72.224 139.285 70.043 C 136.271 67.862 132.639 66.687 128.914 66.687 Z M 106.275 55.272 L 86.175 29.465 M 67.221 21.678 L 86.625 46.628 M 105.211 70.315 L 91.743 52.866 M 88.959 16.5 L 105.784 38.148 M 112.293 47.158 L 117.902 54.375"
        fill="none"
        stroke="#000000"
        stroke-width="8"
        stroke-linecap="round"
        stroke-linejoin="round"/>
</svg>
